assets/components_previews/other/dark/html_embed.svg

<svg xmlns="http://www.w3.org/2000/svg" width="320" height="232" fill="none" viewBox="0 0 320 232"><path fill="#5F43D0" fill-rule="evenodd" d="M165.118 103.222a1 1 0 0 0 .104 1.411l1.84 1.585c.366.316.587.508.728.657-.141.149-.362.341-.728.657l-1.84 1.586a1 1 0 0 0 1.306 1.515l1.84-1.586.043-.038c.349-.3.684-.589.923-.859.262-.296.541-.713.541-1.275s-.279-.979-.541-1.275c-.239-.27-.574-.558-.923-.859l-.043-.038-1.84-1.585a1 1 0 0 0-1.41.104m-2.486 0a1 1 0 0 1-.104 1.411l-1.84 1.585c-.366.316-.587.508-.728.657.141.149.362.341.728.657l1.84 1.586a1 1 0 0 1-1.306 1.515l-1.84-1.586-.043-.038c-.349-.3-.684-.589-.923-.859-.262-.296-.541-.713-.541-1.275s.279-.979.541-1.275c.239-.27.574-.558.923-.859l.043-.038 1.84-1.585a1 1 0 0 1 1.41.104" clip-rule="evenodd"/><path fill="#5F43D0" d="M154.812 110.522c.982.103.545.103 2.086.103a.978.978 0 0 0 0-1.955c-1.609 0-1.015-.001-1.885-.092-.854-.089-1.337-.256-1.695-.509a3 3 0 0 1-.632-.596c-.255-.323-.425-.755-.517-1.542-.095-.81-.097-1.867-.097-3.391v-2.9c0-.267 0-.906.281-1.378.173-.29.394-.534.622-.658a2.6 2.6 0 0 1 1.233-.312l1.041.036c.38.008.823-.004 1.251-.119a2.42 2.42 0 0 0 1.709-1.709c.115-.428.127-.871.119-1.251l-.036-1.04c0-.469.124-.876.341-1.254.127-.22.348-.423.653-.6.462-.269 1.015-.271 1.353-.273l.993-.002c1.834 0 2.501.014 3.005.19.872.308 1.538.95 1.848 1.735.078.197.133.455.162.903.03.457.031 1.04.031 1.88v5.113a.974.974 0 1 0 1.947 0v-5.146c0-.8 0-1.447-.035-1.975-.036-.545-.111-1.03-.294-1.495-.529-1.34-1.638-2.373-3.014-2.858-.859-.303-2.331-.303-3.886-.302-2.84 0-4.526 0-5.909.487-2.22.782-3.994 2.444-4.837 4.58-.281.712-.406 1.477-.466 2.394-.059.9-.059 2.013-.059 3.432v2.583c0 1.448 0 2.621.11 3.558.114.974.357 1.812.927 2.531.295.372.644.701 1.034.977.745.527 1.606.75 2.616.855" opacity=".4"/><path fill="#5F43D0" d="m114.342 137.104-7.168-3.376v-2l7.168-3.376v1.84l-4.64 2.144a8 8 0 0 1-.64.256 4 4 0 0 1-.48.128q.175.032.496.128.32.096.624.24l4.64 2.144zm1.801.896v-11.68h2v2.88l-.048 1.68h.544l-.544.464q0-1.088.624-1.696.64-.608 1.744-.608 1.296 0 2.064.864.784.864.784 2.32V138h-2v-5.568q0-.8-.416-1.232-.415-.432-1.168-.432-.735 0-1.168.448-.416.448-.416 1.28V138zm13.482 0q-1.264 0-1.984-.704-.704-.704-.704-1.936v-4.352h-2.384V129.2h2.384v-2.48h2.016v2.48h3.376v1.808h-3.376v4.352q0 .832.816.832h2.4V138zm4.026 0v-8.8h1.632v1.184h.336l-.272.288q0-.736.416-1.184.415-.448 1.072-.448.704 0 1.088.576.4.576.4 1.552l-.352-.784h.544l-.208.288q0-.736.416-1.184t1.104-.448q.816 0 1.296.608t.48 1.648V138h-1.76v-6.624q0-.432-.192-.672-.192-.256-.56-.256a.7.7 0 0 0-.56.24q-.192.24-.192.688V138h-1.44v-6.624q0-.448-.192-.688t-.56-.24-.56.24q-.176.24-.176.688V138zm14.265 0q-.863 0-1.52-.352a2.6 2.6 0 0 1-1.008-.992q-.368-.656-.368-1.504v-7.024h-2.816v-1.808h4.816v8.832q0 .48.272.768.288.272.768.272h2.656V138zm7.61.16q-.687 0-1.104-.4-.4-.4-.4-1.088t.4-1.088q.417-.416 1.104-.416.689 0 1.088.416.417.4.416 1.088 0 .688-.416 1.088-.4.4-1.088.4m8.97 0q-1.12 0-1.952-.432a3.2 3.2 0 0 1-1.296-1.2q-.448-.785-.448-1.824v-2.208q0-1.04.448-1.808a3.16 3.16 0 0 1 1.296-1.216q.832-.432 1.952-.432 1.104 0 1.92.432.832.432 1.28 1.216.464.768.464 1.808v1.584h-5.424v.624q0 .928.448 1.408.448.464 1.328.464.672 0 1.088-.224a1.07 1.07 0 0 0 .528-.688h1.968q-.224 1.136-1.216 1.824-.976.672-2.384.672m1.728-5.2v-.48q0-.912-.432-1.392-.432-.496-1.296-.496t-1.312.496-.448 1.408v.336l3.632-.032zm3.242 5.04v-8.8h1.632v1.184h.336l-.272.288q0-.736.416-1.184.415-.448 1.072-.448.704 0 1.088.576.4.576.4 1.552l-.352-.784h.544l-.208.288q0-.736.416-1.184.415-.448 1.104-.448.816 0 1.296.608t.48 1.648V138h-1.76v-6.624q0-.432-.192-.672-.192-.256-.56-.256a.7.7 0 0 0-.56.24q-.192.24-.192.688V138h-1.44v-6.624q0-.448-.192-.688t-.56-.24-.56.24q-.176.24-.176.688V138zm13.673.16q-1.087 0-1.728-.608-.64-.624-.64-1.696l.448.464h-.448V138h-1.952v-11.68h2v2.464l-.064 2.096h.464l-.448.464q0-1.072.64-1.68.64-.624 1.728-.624 1.329 0 2.128.912t.8 2.464v2.384q0 1.536-.8 2.448t-2.128.912m-.704-1.728q.768 0 1.2-.448t.432-1.28v-2.208q0-.832-.432-1.28t-1.2-.448q-.752 0-1.184.464-.432.448-.432 1.264v2.208q0 .816.432 1.28.432.448 1.184.448m8.922 1.728q-1.12 0-1.952-.432a3.2 3.2 0 0 1-1.296-1.2q-.448-.785-.448-1.824v-2.208q0-1.04.448-1.808.465-.784 1.296-1.216.833-.432 1.952-.432 1.104 0 1.92.432.833.432 1.28 1.216.465.768.464 1.808v1.584h-5.424v.624q0 .928.448 1.408.449.464 1.328.464.672 0 1.088-.224.417-.24.528-.688h1.968q-.223 1.136-1.216 1.824-.975.672-2.384.672m1.728-5.2v-.48q0-.912-.432-1.392-.432-.496-1.296-.496t-1.312.496q-.447.496-.448 1.408v.336l3.632-.032zm6.458 5.2q-1.312 0-2.128-.912-.8-.912-.8-2.448v-2.384q0-1.552.8-2.464t2.128-.912q1.087 0 1.728.624.64.608.64 1.68l-.448-.464h.464l-.064-2.096v-2.464h2V138h-1.952v-1.68h-.448l.448-.464q0 1.072-.64 1.696-.64.608-1.728.608m.704-1.728q.768 0 1.184-.448.432-.464.432-1.28v-2.208q0-.816-.432-1.264-.416-.464-1.184-.464t-1.2.448-.432 1.28v2.208q0 .832.432 1.28t1.2.448m5.418.672v-1.84l4.64-2.144q.32-.144.624-.24.32-.112.496-.144a8 8 0 0 1-.496-.112 4.4 4.4 0 0 1-.624-.24l-4.64-2.16v-1.872l7.168 3.376v2z"/></svg>

<svg width="320" height="232" viewBox="0 0 320 232" fill="none" xmlns="http://www.w3.org/2000/svg">
<path fill-rule="evenodd" clip-rule="evenodd" d="M165.118 103.222C164.757 103.641 164.804 104.272 165.222 104.633L167.062 106.218C167.428 106.534 167.649 106.726 167.79 106.875C167.649 107.024 167.428 107.216 167.062 107.532L165.222 109.118C164.804 109.478 164.757 110.11 165.118 110.528C165.478 110.946 166.11 110.993 166.528 110.633L168.368 109.047C168.382 109.034 168.397 109.022 168.411 109.009C168.76 108.709 169.095 108.42 169.334 108.15C169.596 107.854 169.875 107.437 169.875 106.875C169.875 106.313 169.596 105.896 169.334 105.6C169.095 105.33 168.76 105.042 168.411 104.741C168.397 104.728 168.382 104.716 168.368 104.703L166.528 103.118C166.11 102.757 165.478 102.804 165.118 103.222Z" fill="#5F43D0"/>
<path fill-rule="evenodd" clip-rule="evenodd" d="M162.632 103.222C162.993 103.641 162.946 104.272 162.528 104.633L160.688 106.218C160.322 106.534 160.101 106.726 159.96 106.875C160.101 107.024 160.322 107.216 160.688 107.532L162.528 109.118C162.946 109.478 162.993 110.11 162.632 110.528C162.272 110.946 161.641 110.993 161.222 110.633L159.382 109.047C159.368 109.034 159.353 109.022 159.339 109.009C158.99 108.709 158.655 108.42 158.416 108.15C158.154 107.854 157.875 107.437 157.875 106.875C157.875 106.313 158.154 105.896 158.416 105.6C158.655 105.33 158.99 105.042 159.339 104.741C159.353 104.728 159.368 104.716 159.382 104.703L161.222 103.118C161.641 102.757 162.272 102.804 162.632 103.222Z" fill="#5F43D0"/>
<path opacity="0.4" d="M154.812 110.522C155.794 110.625 155.357 110.625 156.898 110.625C157.437 110.625 157.875 110.187 157.875 109.648C157.875 109.108 157.437 108.67 156.898 108.67C155.289 108.67 155.883 108.669 155.013 108.578C154.159 108.489 153.676 108.322 153.318 108.069C153.076 107.898 152.864 107.697 152.686 107.473C152.431 107.15 152.261 106.718 152.169 105.931C152.074 105.121 152.072 104.064 152.072 102.54L152.072 99.64C152.072 99.373 152.072 98.7344 152.353 98.2623C152.526 97.9713 152.747 97.7282 152.975 97.6044C153.341 97.4048 153.762 97.2915 154.208 97.2915L155.249 97.328C155.629 97.3359 156.072 97.3239 156.5 97.2091C157.334 96.9857 157.986 96.3343 158.209 95.5003C158.324 95.0722 158.336 94.6286 158.328 94.2485L158.292 93.2082C158.292 92.7405 158.416 92.3333 158.633 91.9549C158.76 91.7343 158.981 91.5324 159.286 91.3551C159.748 91.0862 160.301 91.0837 160.639 91.0822C160.977 91.0807 161.334 91.0795 161.632 91.0795C163.466 91.0795 164.133 91.0935 164.637 91.2708C165.509 91.5783 166.175 92.2199 166.485 93.0053C166.563 93.2019 166.618 93.4603 166.647 93.9083C166.677 94.365 166.678 94.9479 166.678 95.7882V100.901C166.678 101.439 167.114 101.875 167.651 101.875C168.189 101.875 168.625 101.439 168.625 100.901V95.755C168.625 94.9558 168.625 94.3083 168.59 93.7797C168.554 93.2351 168.479 92.7494 168.296 92.2852C167.767 90.9459 166.658 89.9117 165.282 89.4266C164.423 89.1241 162.951 89.1245 161.396 89.125C158.556 89.1246 156.87 89.1244 155.487 89.6115C153.267 90.3937 151.493 92.0564 150.65 94.1925C150.369 94.9044 150.244 95.6691 150.184 96.586C150.125 97.4867 150.125 98.5993 150.125 100.018V102.601C150.125 104.049 150.125 105.222 150.235 106.159C150.349 107.133 150.592 107.971 151.162 108.69C151.457 109.062 151.806 109.391 152.196 109.667C152.941 110.194 153.802 110.417 154.812 110.522Z" fill="#5F43D0"/>
<path d="M114.342 137.104L107.174 133.728V131.728L114.342 128.352V130.192L109.702 132.336C109.488 132.432 109.275 132.517 109.062 132.592C108.859 132.656 108.699 132.699 108.582 132.72C108.699 132.741 108.864 132.784 109.078 132.848C109.291 132.912 109.499 132.992 109.702 133.088L114.342 135.232V137.104ZM116.143 138V126.32H118.143V129.2L118.095 130.88H118.639L118.095 131.344C118.095 130.619 118.303 130.053 118.719 129.648C119.146 129.243 119.727 129.04 120.463 129.04C121.327 129.04 122.015 129.328 122.527 129.904C123.05 130.48 123.311 131.253 123.311 132.224V138H121.311V132.432C121.311 131.899 121.173 131.488 120.895 131.2C120.618 130.912 120.229 130.768 119.727 130.768C119.237 130.768 118.847 130.917 118.559 131.216C118.282 131.515 118.143 131.941 118.143 132.496V138H116.143ZM129.625 138C128.782 138 128.121 137.765 127.641 137.296C127.172 136.827 126.937 136.181 126.937 135.36V131.008H124.553V129.2H126.937V126.72H128.953V129.2H132.329V131.008H128.953V135.36C128.953 135.915 129.225 136.192 129.769 136.192H132.169V138H129.625ZM133.651 138V129.2H135.283V130.384H135.619L135.347 130.672C135.347 130.181 135.485 129.787 135.763 129.488C136.04 129.189 136.397 129.04 136.835 129.04C137.304 129.04 137.667 129.232 137.923 129.616C138.189 130 138.323 130.517 138.323 131.168L137.971 130.384H138.515L138.307 130.672C138.307 130.181 138.445 129.787 138.723 129.488C139 129.189 139.368 129.04 139.827 129.04C140.371 129.04 140.803 129.243 141.123 129.648C141.443 130.053 141.603 130.603 141.603 131.296V138H139.843V131.376C139.843 131.088 139.779 130.864 139.651 130.704C139.523 130.533 139.336 130.448 139.091 130.448C138.856 130.448 138.669 130.528 138.531 130.688C138.403 130.848 138.339 131.077 138.339 131.376V138H136.899V131.376C136.899 131.077 136.835 130.848 136.707 130.688C136.579 130.528 136.392 130.448 136.147 130.448C135.901 130.448 135.715 130.528 135.587 130.688C135.469 130.848 135.411 131.077 135.411 131.376V138H133.651ZM147.916 138C147.34 138 146.834 137.883 146.396 137.648C145.97 137.413 145.634 137.083 145.388 136.656C145.143 136.219 145.02 135.717 145.02 135.152V128.128H142.204V126.32H147.02V135.152C147.02 135.472 147.111 135.728 147.292 135.92C147.484 136.101 147.74 136.192 148.06 136.192H150.716V138H147.916ZM155.526 138.16C155.068 138.16 154.7 138.027 154.422 137.76C154.156 137.493 154.022 137.131 154.022 136.672C154.022 136.213 154.156 135.851 154.422 135.584C154.7 135.307 155.068 135.168 155.526 135.168C155.985 135.168 156.348 135.307 156.614 135.584C156.892 135.851 157.03 136.213 157.03 136.672C157.03 137.131 156.892 137.493 156.614 137.76C156.348 138.027 155.985 138.16 155.526 138.16ZM164.496 138.16C163.749 138.16 163.099 138.016 162.544 137.728C161.989 137.44 161.557 137.04 161.248 136.528C160.949 136.005 160.8 135.397 160.8 134.704V132.496C160.8 131.803 160.949 131.2 161.248 130.688C161.557 130.165 161.989 129.76 162.544 129.472C163.099 129.184 163.749 129.04 164.496 129.04C165.232 129.04 165.872 129.184 166.416 129.472C166.971 129.76 167.397 130.165 167.696 130.688C168.005 131.2 168.16 131.803 168.16 132.496V134.08H162.736V134.704C162.736 135.323 162.885 135.792 163.184 136.112C163.483 136.421 163.925 136.576 164.512 136.576C164.96 136.576 165.323 136.501 165.6 136.352C165.877 136.192 166.053 135.963 166.128 135.664H168.096C167.947 136.421 167.541 137.029 166.88 137.488C166.229 137.936 165.435 138.16 164.496 138.16ZM166.224 132.96V132.48C166.224 131.872 166.08 131.408 165.792 131.088C165.504 130.757 165.072 130.592 164.496 130.592C163.92 130.592 163.483 130.757 163.184 131.088C162.885 131.419 162.736 131.888 162.736 132.496V132.832L166.368 132.8L166.224 132.96ZM169.466 138V129.2H171.098V130.384H171.434L171.162 130.672C171.162 130.181 171.3 129.787 171.578 129.488C171.855 129.189 172.212 129.04 172.65 129.04C173.119 129.04 173.482 129.232 173.738 129.616C174.004 130 174.138 130.517 174.138 131.168L173.786 130.384H174.33L174.122 130.672C174.122 130.181 174.26 129.787 174.538 129.488C174.815 129.189 175.183 129.04 175.642 129.04C176.186 129.04 176.618 129.243 176.938 129.648C177.258 130.053 177.418 130.603 177.418 131.296V138H175.658V131.376C175.658 131.088 175.594 130.864 175.466 130.704C175.338 130.533 175.151 130.448 174.906 130.448C174.671 130.448 174.484 130.528 174.346 130.688C174.218 130.848 174.154 131.077 174.154 131.376V138H172.714V131.376C172.714 131.077 172.65 130.848 172.522 130.688C172.394 130.528 172.207 130.448 171.962 130.448C171.716 130.448 171.53 130.528 171.402 130.688C171.284 130.848 171.226 131.077 171.226 131.376V138H169.466ZM183.139 138.16C182.414 138.16 181.838 137.957 181.411 137.552C180.985 137.136 180.771 136.571 180.771 135.856L181.219 136.32H180.771V138H178.819V126.32H180.819V128.784L180.755 130.88H181.219L180.771 131.344C180.771 130.629 180.985 130.069 181.411 129.664C181.838 129.248 182.414 129.04 183.139 129.04C184.025 129.04 184.734 129.344 185.267 129.952C185.801 130.56 186.067 131.381 186.067 132.416V134.8C186.067 135.824 185.801 136.64 185.267 137.248C184.734 137.856 184.025 138.16 183.139 138.16ZM182.435 136.432C182.947 136.432 183.347 136.283 183.635 135.984C183.923 135.685 184.067 135.259 184.067 134.704V132.496C184.067 131.941 183.923 131.515 183.635 131.216C183.347 130.917 182.947 130.768 182.435 130.768C181.934 130.768 181.539 130.923 181.251 131.232C180.963 131.531 180.819 131.952 180.819 132.496V134.704C180.819 135.248 180.963 135.675 181.251 135.984C181.539 136.283 181.934 136.432 182.435 136.432ZM191.357 138.16C190.611 138.16 189.96 138.016 189.405 137.728C188.851 137.44 188.419 137.04 188.109 136.528C187.811 136.005 187.661 135.397 187.661 134.704V132.496C187.661 131.803 187.811 131.2 188.109 130.688C188.419 130.165 188.851 129.76 189.405 129.472C189.96 129.184 190.611 129.04 191.357 129.04C192.093 129.04 192.733 129.184 193.277 129.472C193.832 129.76 194.259 130.165 194.557 130.688C194.867 131.2 195.021 131.803 195.021 132.496V134.08H189.597V134.704C189.597 135.323 189.747 135.792 190.045 136.112C190.344 136.421 190.787 136.576 191.373 136.576C191.821 136.576 192.184 136.501 192.461 136.352C192.739 136.192 192.915 135.963 192.989 135.664H194.957C194.808 136.421 194.403 137.029 193.741 137.488C193.091 137.936 192.296 138.16 191.357 138.16ZM193.085 132.96V132.48C193.085 131.872 192.941 131.408 192.653 131.088C192.365 130.757 191.933 130.592 191.357 130.592C190.781 130.592 190.344 130.757 190.045 131.088C189.747 131.419 189.597 131.888 189.597 132.496V132.832L193.229 132.8L193.085 132.96ZM199.543 138.16C198.668 138.16 197.959 137.856 197.415 137.248C196.882 136.64 196.615 135.824 196.615 134.8V132.416C196.615 131.381 196.882 130.56 197.415 129.952C197.948 129.344 198.658 129.04 199.543 129.04C200.268 129.04 200.844 129.248 201.271 129.664C201.698 130.069 201.911 130.629 201.911 131.344L201.463 130.88H201.927L201.863 128.784V126.32H203.863V138H201.911V136.32H201.463L201.911 135.856C201.911 136.571 201.698 137.136 201.271 137.552C200.844 137.957 200.268 138.16 199.543 138.16ZM200.247 136.432C200.759 136.432 201.154 136.283 201.431 135.984C201.719 135.675 201.863 135.248 201.863 134.704V132.496C201.863 131.952 201.719 131.531 201.431 131.232C201.154 130.923 200.759 130.768 200.247 130.768C199.735 130.768 199.335 130.917 199.047 131.216C198.759 131.515 198.615 131.941 198.615 132.496V134.704C198.615 135.259 198.759 135.685 199.047 135.984C199.335 136.283 199.735 136.432 200.247 136.432ZM205.665 137.104V135.264L210.305 133.12C210.518 133.024 210.726 132.944 210.929 132.88C211.142 132.805 211.307 132.757 211.425 132.736C211.307 132.715 211.142 132.677 210.929 132.624C210.715 132.56 210.507 132.48 210.305 132.384L205.665 130.224V128.352L212.833 131.728V133.728L205.665 137.104Z" fill="#5F43D0"/>
</svg>
